src/24/actions/format-text-direction-rtl.svg

<svg xmlns="http://www.w3.org/2000/svg" viewBox="0 0 24 24"><path d="M4 4v1h10V4H4zm11 0v5h5V4h-5zm-4 2v1h3V6h-3zm-1 4v1h10v-1H10zm6 2v1h4v-1h-4zm-6 4v1h10v-1H10zm3 2v1h7v-1h-7zm-3 1v1h2v-1h-2z" fill="currentColor" color="#5d656b"/></svg>

<svg xmlns="http://www.w3.org/2000/svg" viewBox="0 0 24 24">
  <defs id="defs3051">
    <style type="text/css" id="current-color-scheme">
      .ColorScheme-Text {
        color:#5d656b;
      }
      </style>
  </defs>
 <path style="fill:currentColor;fill-opacity:1;stroke:none" 
     d="M 4 4 L 4 5 L 14 5 L 14 4 L 4 4 z M 15 4 L 15 9 L 20 9 L 20 4 L 15 4 z M 11 6 L 11 7 L 14 7 L 14 6 L 11 6 z M 10 10 L 10 11 L 20 11 L 20 10 L 10 10 z M 16 12 L 16 13 L 20 13 L 20 12 L 16 12 z M 10 16 L 10 17 L 20 17 L 20 16 L 10 16 z M 13 18 L 13 19 L 20 19 L 20 18 L 13 18 z M 10 19 L 10 20 L 12 20 L 12 19 L 10 19 z "
     class="ColorScheme-Text"
     />
</svg>
